logos/builder-io.svg

<?xml version="1.0" encoding="UTF-8"?>
<svg width="512px" height="110px" viewBox="0 0 512 110" version="1.1" xmlns="http://www.w3.org/2000/svg" preserveAspectRatio="xMidYMid">
    <title>Builder</title>
    <g>
        <g>
            <path d="M96.155915,30.9202051 C96.1608205,35.5331282 95.1335385,40.0869744 93.1478974,44.2486154 C91.1622564,48.4102564 88.2691282,52.0746667 84.6818462,54.9710769 L2.17928205,8.1214359 C1.86420513,7.94092308 1.57210256,7.72430769 1.30789744,7.47323077 C0.894358974,7.06789744 0.566153846,6.58379487 0.341333333,6.05046154 C0.116512821,5.51548718 0,4.94112821 0,4.36184615 C0,3.20492308 0.459487179,2.09558974 1.27671795,1.27835897 C2.09394872,0.459487179 3.20328205,2.91038305e-13 4.36020513,2.91038305e-13 L65.2504615,2.91038305e-13 C73.4473846,2.91038305e-13 81.3078974,3.2574359 87.104,9.05682051 C92.9001026,14.8545641 96.155915,22.72 96.155915,30.9202051 Z" fill="#18B4F4"></path>
            <path d="M96.1559,79.0203077 C96.1575385,83.0818462 95.358359,87.104 93.8059487,90.8553846 C92.2535385,94.6084103 89.9774359,98.0184615 87.1072821,100.890256 C84.2371282,103.762051 80.8287179,106.039795 77.0789744,107.593846 C73.3292308,109.149538 69.3087179,109.948718 65.2504615,109.948718 L4.36020513,109.948718 C3.49702564,109.938872 2.65682051,109.674667 1.94461538,109.187282 C1.23405128,108.699897 0.681025641,108.012308 0.361025641,107.211487 C0.0393846154,106.410667 -0.0377435897,105.532718 0.141128205,104.68759 C0.318358974,103.844103 0.74174359,103.071179 1.35876923,102.467282 C1.60492308,102.221128 1.88061538,102.006154 2.17928205,101.827282 L34.6486154,83.390359 L84.6752821,54.977641 C88.2609231,57.8740513 91.1540513,61.5368205 93.1413333,65.6968205 C95.1286154,69.8568205 96.1575385,74.4106667 96.1559,79.0203077 Z" fill="#FD6B3C"></path>
            <path d="M84.6818462,54.9710769 L34.6486154,83.390359 L2.18092308,101.827282 C1.86912821,102.001231 1.58030769,102.212923 1.32266667,102.460718 C13.7025641,89.7575385 20.6244103,72.7122051 20.609641,54.9710769 C20.6326154,37.2266667 13.7124103,20.1780513 1.32923077,7.47323077 C1.5934359,7.72430769 1.88553846,7.94092308 2.20225641,8.1214359 L84.6818462,54.9710769 Z" fill="#A97FF2"></path>
        </g>
        <path d="M163.776,40.321641 C178.039795,40.321641 186.098872,51.7202051 186.098872,65.5277949 C186.098872,79.3337436 178.039795,90.6453333 163.776,90.6453333 C156.363487,90.6453333 150.695385,87.68 147.562667,82.6486154 L146.269538,89.5113846 L137.345641,89.5113846 L137.345641,23.2648205 L148.391385,23.2648205 L148.391385,47.7292308 C151.079385,43.6217436 156.363487,40.321641 163.776,40.321641 Z M161.550769,80.9107692 C169.887179,80.9107692 175.074462,74.1497436 175.074462,65.5277949 C175.074462,56.7236923 169.887179,50.048 161.550769,50.048 C153.216,50.048 148.020513,56.7089231 148.020513,65.5277949 C148.020513,74.1563077 153.122462,80.9107692 161.550769,80.9107692 Z M224.91241,69.7009231 L224.91241,41.4408205 L235.935179,41.4408205 L235.935179,69.1413333 C235.935179,81.4998974 230.290051,90.6453333 214.723282,90.6453333 C199.158154,90.6453333 193.511385,81.470359 193.511385,69.1413333 L193.511385,41.4408205 L204.535795,41.4408205 L204.535795,69.7009231 C204.535795,77.2036923 208.052513,80.9107692 214.708513,80.9107692 C221.366154,80.9107692 224.91241,77.2036923 224.91241,69.7009231 Z M244.757333,26.6092308 C244.721231,25.6410256 244.885333,24.6761026 245.239795,23.7751795 C245.594256,22.8742564 246.130872,22.0553846 246.816821,21.3727179 C247.502769,20.6900513 248.323282,20.1567179 249.225846,19.8055385 C250.12841,19.456 251.094974,19.2968205 252.061538,19.3394872 C256.247795,19.3394872 259.262359,22.3556923 259.262359,26.6453333 C259.262359,30.9349744 256.247795,33.7493333 252.061538,33.7493333 C247.875282,33.7493333 244.757333,30.7905641 244.757333,26.6092308 Z M441.430974,26.6092308 C441.393231,25.6443077 441.557333,24.6826667 441.908513,23.7833846 C442.261333,22.8857436 442.794667,22.0685128 443.477333,21.3874872 C444.16,20.7048205 444.97559,20.1698462 445.873231,19.8170256 C446.772513,19.4658462 447.734154,19.3017436 448.697436,19.3394872 C452.883692,19.3394872 455.899897,22.3556923 455.899897,26.6453333 C455.899897,30.9349744 452.883692,33.7493333 448.697436,33.7493333 C444.511179,33.7493333 441.430974,30.7905641 441.430974,26.6092308 Z M427.485538,75.5462564 C431.671795,75.5462564 434.686359,78.5624615 434.686359,82.816 C434.686359,87.0695385 431.671795,89.9265641 427.485538,89.9265641 C423.299282,89.9265641 420.219077,87.0038974 420.219077,82.816 C420.181333,81.8510769 420.342154,80.8894359 420.694974,79.9901538 C421.046154,79.0908718 421.581128,78.273641 422.262154,77.5909744 C422.944821,76.9083077 423.762051,76.3733333 424.659692,76.0221538 C425.558974,75.6693333 426.520615,75.5085128 427.485538,75.5462564 Z M423.721026,40.9747692 L425.291487,41.0699487 L425.291487,51.3509744 C424.462769,51.2344615 423.627487,51.1721026 422.790564,51.1606154 C415.008821,51.1606154 410.379487,55.2402051 410.379487,64.5087179 L410.379487,89.534359 L399.355077,89.534359 L399.355077,41.4408205 L408.257641,41.4408205 L409.542564,48.1083077 C411.301744,45.054359 415.356718,40.9747692 423.721026,40.9747692 Z M246.501744,41.4342564 L257.526154,41.4342564 L257.526154,89.534359 L246.501744,89.534359 L246.501744,41.4342564 Z M268.550564,89.534359 L268.550564,23.2648205 L279.573333,23.2648205 L279.573333,89.5491282 L268.550564,89.534359 Z M325.057641,23.2648205 L336.082051,23.2648205 L336.082051,89.5491282 L327.179487,89.5491282 L325.886359,82.6847179 C322.834051,87.6947692 317.165949,90.6830769 309.681231,90.6830769 C295.502769,90.6830769 287.443692,79.2828718 287.443692,65.5638974 C287.443692,51.8449231 295.502769,40.3577436 309.681231,40.3577436 C317.180718,40.3577436 322.369641,43.6873846 325.057641,47.7653333 L325.057641,23.2648205 Z M311.977026,50.0627692 C303.642256,50.0627692 298.453333,56.7368205 298.453333,65.5425641 C298.453333,74.1645128 303.642256,80.9255385 311.977026,80.9255385 C320.311795,80.9255385 325.500782,74.1645128 325.500782,65.5425641 C325.515487,56.7089231 320.421744,50.048 311.991795,50.048 L311.977026,50.0627692 Z M389.901128,76.3749744 C386.477949,84.990359 378.505846,90.6453333 368.041026,90.6453333 C353.508103,90.6453333 344.060718,79.7981538 344.060718,65.4326154 C344.060718,51.4379487 353.696821,40.321641 367.962256,40.321641 C382.227692,40.321641 391.586462,51.1606154 391.586462,65.2504615 C391.63241,66.4008205 391.532308,67.5511795 391.289436,68.6752821 L354.888205,68.6752821 C355.716923,76.2797949 360.630154,81.1881026 368.318359,81.1881026 C373.600821,81.1881026 377.954462,78.592 379.989333,73.7788718 L389.901128,76.3749744 Z M355.070359,60.5259487 L380.642462,60.5259487 C379.712,53.8518974 375.084308,49.3078974 367.947487,49.3078974 C360.810667,49.3078974 356.182974,53.9454359 355.070359,60.5259487 Z M443.175385,41.4342564 L454.198154,41.4342564 L454.198154,89.534359 L443.175385,89.534359 L443.175385,41.4342564 Z M462.068513,65.5277949 C462.068513,51.9975385 471.704615,40.321641 486.987487,40.321641 C502.270359,40.321641 512,51.9975385 512,65.5277949 C512,79.0580513 502.372103,90.6453333 486.987487,90.6453333 C471.602872,90.6453333 462.068513,79.0580513 462.068513,65.5277949 Z M486.987487,80.9107692 C495.053128,80.9107692 500.97559,74.7963077 500.97559,65.5277949 C500.97559,56.257641 495.053128,50.049641 486.987487,50.049641 C478.920205,50.049641 473.078154,56.1624615 473.078154,65.5277949 C473.078154,74.8914872 479.021949,80.9107692 486.987487,80.9107692 Z" fill="#000000"></path>
    </g>
</svg>

<svg preserveAspectRatio="xMidYMid" viewBox="0 0 512 110" xmlns="http://www.w3.org/2000/svg">
  <path fill="#18B4F4" d="M96.156 30.92a30.873 30.873 0 0 1-11.474 24.051L2.179 8.121a4.536 4.536 0 0 1-.871-.648A4.367 4.367 0 0 1 0 4.362 4.36 4.36 0 0 1 4.36 0h60.89a30.895 30.895 0 0 1 21.854 9.057 30.925 30.925 0 0 1 9.052 21.863Z"/>
  <path fill="#FD6B3C" d="M96.156 79.02a30.922 30.922 0 0 1-19.077 28.574 30.87 30.87 0 0 1-11.829 2.355H4.36a4.363 4.363 0 0 1-3.999-2.738 4.362 4.362 0 0 1 .998-4.744c.246-.246.522-.46.82-.64L34.65 83.39l50.026-28.412a30.886 30.886 0 0 1 11.48 24.043Z"/>
  <path fill="#A97FF2" d="m84.682 54.971-50.033 28.42L2.18 101.826c-.312.174-.6.386-.858.634A67.964 67.964 0 0 0 20.61 54.97 67.924 67.924 0 0 0 1.33 7.473c.263.251.556.468.872.648l82.48 46.85Z"/>
  <path d="M163.776 40.322c14.264 0 22.323 11.398 22.323 25.206 0 13.806-8.06 25.117-22.323 25.117-7.413 0-13.08-2.965-16.213-7.996l-1.293 6.862h-8.924V23.265h11.045v24.464c2.688-4.107 7.972-7.407 15.385-7.407Zm-2.225 40.589c8.336 0 13.523-6.761 13.523-15.383 0-8.804-5.187-15.48-13.523-15.48-8.335 0-13.53 6.66-13.53 15.48 0 8.628 5.101 15.383 13.53 15.383Zm63.361-11.21V41.44h11.023v27.7c0 12.359-5.645 21.504-21.212 21.504-15.565 0-21.212-9.175-21.212-21.504v-27.7h11.025V69.7c0 7.503 3.517 11.21 10.173 11.21 6.657 0 10.203-3.707 10.203-11.21Zm19.845-43.092a7.026 7.026 0 0 1 2.06-5.236 7.002 7.002 0 0 1 5.245-2.033c4.186 0 7.2 3.016 7.2 7.305 0 4.29-3.014 7.104-7.2 7.104-4.187 0-7.305-2.958-7.305-7.14Zm196.674 0a7.002 7.002 0 0 1 2.046-5.222 7.022 7.022 0 0 1 2.396-1.57 7.03 7.03 0 0 1 2.824-.478c4.187 0 7.203 3.017 7.203 7.306 0 4.29-3.016 7.104-7.203 7.104-4.186 0-7.266-2.958-7.266-7.14Zm-13.945 48.937c4.186 0 7.2 3.016 7.2 7.27s-3.014 7.11-7.2 7.11c-4.187 0-7.267-2.922-7.267-7.11a7.01 7.01 0 0 1 2.043-5.225 7 7 0 0 1 5.224-2.045Zm-3.765-34.571 1.57.095v10.28a19.925 19.925 0 0 0-2.5-.19c-7.782 0-12.412 4.08-12.412 13.348v25.025h-11.024V41.441h8.903l1.285 6.667c1.759-3.054 5.814-7.133 14.178-7.133Zm-177.22.46h11.025v48.1h-11.024v-48.1Zm22.05 48.1v-66.27h11.022v66.284l-11.022-.015Zm56.507-66.27h11.024v66.284h-8.903l-1.293-6.864c-3.052 5.01-8.72 7.998-16.205 7.998-14.178 0-22.237-11.4-22.237-25.12 0-13.718 8.059-25.205 22.237-25.205 7.5 0 12.689 3.33 15.377 7.407v-24.5Zm-13.081 26.798c-8.335 0-13.524 6.674-13.524 15.48 0 8.622 5.19 15.383 13.524 15.383 8.335 0 13.524-6.761 13.524-15.383.014-8.834-5.08-15.495-13.51-15.495l-.014.015Zm77.924 26.312c-3.423 8.615-11.395 14.27-21.86 14.27-14.533 0-23.98-10.847-23.98-25.212 0-13.995 9.636-25.111 23.901-25.111 14.266 0 23.624 10.839 23.624 24.928a13.632 13.632 0 0 1-.297 3.425h-36.4c.828 7.605 5.741 12.513 13.43 12.513 5.282 0 9.635-2.596 11.67-7.41l9.912 2.597Zm-34.83-15.85h25.571c-.93-6.673-5.558-11.217-12.695-11.217-7.136 0-11.764 4.637-12.877 11.218Zm88.104-19.09h11.023v48.1h-11.023v-48.1Zm18.894 24.093c0-13.53 9.636-25.206 24.918-25.206C502.27 40.322 512 51.998 512 65.528s-9.628 25.117-25.013 25.117c-15.384 0-24.918-11.587-24.918-25.117Zm24.918 15.383c8.066 0 13.989-6.115 13.989-15.383 0-9.27-5.923-15.478-13.989-15.478-8.067 0-13.909 6.112-13.909 15.478 0 9.363 5.944 15.383 13.91 15.383Z"/>
</svg>
